X: 13191
T: First Song
R: reel
M: 4/4
K: Cmajor
|:A2 AB cBAe|A2 AB cBAE|A2 AB cBAG|A4 z2 z2:|
|:c2 cG cded|c2 cd eged|c2 cd edcB|c2 B2 A2 E2|
A2 AB cBAe|A2 AB cBAE|A2 AB cBAG|A4 z2 z2:|

